outputs/icons/maps/zoom_in_map_round.svg

<svg width="1200" height="1200" viewBox="0 0 1200 1200" fill="none" xmlns="http://www.w3.org/2000/svg"><g clip-path="url(#clip0_238_1712)"><path d="M150 399.999C150 427.499 172.5 449.999 200 449.999H400C427.5 449.999 450 427.499 450 399.999V199.999C450 172.499 427.5 149.999 400 149.999C372.5 149.999 350 172.499 350 199.999V279.499L231 160.499C211.5 140.999 180 140.999 160.5 160.499C141 179.999 141 211.499 160.5 230.999L279.5 349.999H200C172.5 349.999 150 372.499 150 399.999ZM1000 349.999H920.5L1039.5 230.999C1059 211.499 1059 179.999 1039.5 160.499C1020 140.999 988.5 140.999 969 160.499L850 279.499V199.999C850 172.499 827.5 149.999 800 149.999C772.5 149.999 750 172.499 750 199.999V399.999C750 427.499 772.5 449.999 800 449.999H1000C1027.5 449.999 1050 427.499 1050 399.999C1050 372.499 1027.5 349.999 1000 349.999ZM200 850H279.5L160.5 969C141 988.5 141 1020 160.5 1039.5C180 1059 211.5 1059 231 1039.5L350 920.5V1000C350 1027.5 372.5 1050 400 1050C427.5 1050 450 1027.5 450 1000V800C450 772.5 427.5 750 400 750H200C172.5 750 150 772.5 150 800C150 827.5 172.5 850 200 850ZM1050 800C1050 772.5 1027.5 750 1000 750H800C772.5 750 750 772.5 750 800V1000C750 1027.5 772.5 1050 800 1050C827.5 1050 850 1027.5 850 1000V920.5L969 1039.5C988.5 1059 1020 1059 1039.5 1039.5C1059 1020 1059 988.5 1039.5 969L920.5 850H1000C1027.5 850 1050 827.5 1050 800Z" fill="#1D1E23"/></g><defs><clipPath id="clip0_238_1712"><path width="24" fill="white" d="M0 0H1200V1200H0V0z"/></clipPath></defs></svg>

<svg xmlns="http://www.w3.org/2000/svg" width="1200" height="1200" fill="none"><g clip-path="url(#a)"><path fill="#000" d="M149.999 399.999c0 27.5 22.5 50 50 50h200c27.5 0 50-22.5 50-50v-200c0-27.5-22.5-50-50-50s-50 22.5-50 50v79.5l-119-119c-19.5-19.5-51-19.5-70.5 0s-19.5 51 0 70.5l119 119h-79.5c-27.5 0-50 22.5-50 50m850.001-50h-79.5l119-119c19.5-19.5 19.5-51 0-70.5s-51-19.5-70.5 0l-119 119v-79.5c0-27.5-22.5-50-50-50s-50 22.5-50 50v200c0 27.5 22.5 50 50 50h200c27.5 0 50-22.5 50-50s-22.5-50-50-50M199.999 850h79.5l-119 119c-19.5 19.5-19.5 51 0 70.5s51 19.5 70.5 0l119-119v79.5c0 27.5 22.5 50 50 50s50-22.5 50-50V800c0-27.5-22.5-50-50-50h-200c-27.5 0-50 22.5-50 50s22.5 50 50 50M1050 800c0-27.5-22.5-50-50-50H800c-27.5 0-50 22.5-50 50v200c0 27.5 22.5 50 50 50s50-22.5 50-50v-79.5l119 119c19.5 19.5 51 19.5 70.5 0s19.5-51 0-70.5l-119-119h79.5c27.5 0 50-22.5 50-50"/></g><defs><clipPath id="a"><path fill="#fff" d="M0 0h1200v1200H0z"/></clipPath></defs></svg>
